X:1
T:Close to Thee
T:Silas Jones Vail
T:Close to Thee
T:Public Domain
T:Public Domain
C:Silas Jones Vail
Z:Public Domain
%%score ( 1 2 ) 3
L:1/8
M:3/4
K:G
V:1 treble 
V:2 treble 
V:3 bass 
V:1
 D[DG] | [GB]3 [DG] [DF]>[DA] | [DG]2 D2 [DG][DB] | [Gd]3 [GB] G>[GB] | [FA]4 D[DG] | %5
w: 1.~Thou my|er- last- ing por-|tion, More than friend|life to me, All|long my pil-|
w: 2.~Not for|or world- ly plea-|sure, Nor for fame|pray- er shall be;|ly will I|
w: 3.~Lead me|the vale of sha-|dows, Bear me over|fit- ful sea; Then|gate of life|
 [GB]3 [GB] [GB]>[=Fd] | [Ed]2 [Ec]2 [EB][EA] | [DG]3 [GB] [FB]>[FA] | G4 | [DF]>[DG] | %10
w: jour- ney, Sav- ior,|let me walk with|Thee. Close to Thee,|close|Thee, Close|
w: and suf- fer, Only|let me walk with|Thee. Close to Thee,|close|Thee, Close|
w: ter- nal May I|en- ter, Lord, with|Thee. Close to Thee,|close|Thee, Close|
 [FA]4 [Fc]>[DF] | [DG]4 [GB]>[Ac] | [Bd]4 [Bd]>[GB] | [FA]4 D[DG] | [GB]3 [GB] [GB]>[=Fd] | %15
w: to Thee, close|to Thee, All|a- long my|pil- grim jour-|Sav- ior, let me|
w: to Thee, close|to Thee, Glad-|ly will I|toil and suf-|Onl- y let me|
w: to Thee, close|to Thee, Then|the gate of|life e- ter-|May I en- ter,|
 [Ed]2 [Ec]2 [EB][EA] | [DG]3 [GB] [FB]>[FA] | G4 |] %18
w: walk with Thee. *|||
w: walk with Thee. *|||
w: Lord, with Thee. *|||
V:2
 D x | x6 | x2 D2 x2 | x4 G3/2 x/ | x4 D x | x6 | x6 | x6 | G4 | x2 | x6 | x6 | x6 | x4 D x | x6 | %15
w: ev-||or|a-|grim||||to|||||ney,||
w: ease||my|Glad-|toil||||to|||||fer,||
w: through||life’s|the|e-||||to|||||nal||
 x6 | x6 | G4 |] %18
w: |||
w: |||
w: |||
V:3
 [G,B,][G,B,] | [G,D]3 [G,B,] [D,A,]>[D,C] | [G,B,]2 [G,B,]2 [G,B,][G,B,] | %3
 [G,B,]3 [G,D] [B,D]>[G,D] | [D,D]4 [G,B,][G,B,] | [G,D]3 [G,D] [G,D]>[B,,G,] | %6
 [C,G,]2 [C,G,]2 [C,G,][C,A,] | [D,B,]3 [D,D] [D,D]>[D,C] | [G,,B,]4 | [D,A,]>[D,B,] | %10
 [D,C]4 [D,A,]>[D,C] | [G,B,]4 [G,D]>[G,D] | [G,D]4 [G,D]>[G,D] | [D,D]4 [G,B,][G,B,] | %14
 [G,D]3 [G,D] [G,D]>[B,,G,] | [C,G,]2 [C,G,]2 [C,G,][C,A,] | [D,B,]3 [D,D] [D,D]>[D,C] | %17
 [G,,B,]4 |] %18

